X: 1
T: the Famous Baravan
C: Gordon Duncan
R: jig
Z: 2013 John Chambers
S: from Lance Ramshaw's Slow Session, 2013-8-31
N: "The Famous Baravan ... refers to a camper van ("caravan") where many drinks were consumed."
M: 6/8
L: 1/8
K: D
c |:\
"D"d2c dAB | "D7"d2c def | "G"g2f gef | "Em"g2f gef | "A7"aaa aed |
"A7"c2e ecA |1 "A7"A2c ecA | "D"dcd "A7"eAB :|2 "A7"Ace edc | "D"d3 "D7"def ||
|:\
"G"g2f gdB | "G"GBd gag | "D"eff fed | "D"dcd fed | "A7"eee age |
"A7"age age |1 "A7"aaa aed | "A7"cAd AeA :|2 "A7"aaa edc | "D"d3 d3 |]

%%sep 1 1 500

